X: 278
%
U:~=!turn!
T: Kiss the Lass Ye Like Best
C:
O:Scotland
B:Keith Norman MacDonald : "The Skye collection of the best reels & strathspeys extant" : 1887
Z:Ralph Palmer
R:Strathspey
M:C
L:1/8
K:D
d | A/A/A (FA) BEEd | A/A/A (FA) Ddfd | (e/f/g) (f/g/a) eEEF | A/A/A f>e dDD :|
f | a>baf beef | abaf defd | (e/f/g) (f/g/a) eEEF | A/A/A f>e dDDf |
a>baf beef | abaf defd | egfa eEEF | A/A/A f>e dDD |]


